// Outline pass — render back-faces scaled outward
shader_type spatial;
render_mode cull_front, unshaded, shadows_disabled;

uniform vec4 outline_color : source_color = vec4(0.0, 0.0, 0.0, 1.0);
uniform float outline_width : hint_range(0.0, 0.1) = 0.025;

void vertex() {
    VERTEX += NORMAL * outline_width;
}

void fragment() {
    ALBEDO = outline_color.rgb;
    ALPHA = outline_color.a;
}
